symbols-de/shields/motorway_4x2_z16.svg

<?xml version="1.0" encoding="UTF-8" standalone="no"?>
<svg
   xmlns:dc="http://purl.org/dc/elements/1.1/"
   xmlns:cc="http://creativecommons.org/ns#"
   xmlns:rdf="http://www.w3.org/1999/02/22-rdf-syntax-ns#"
   xmlns:svg="http://www.w3.org/2000/svg"
   xmlns="http://www.w3.org/2000/svg"
   xmlns:sodipodi="http://sodipodi.sourceforge.net/DTD/sodipodi-0.dtd"
   xmlns:inkscape="http://www.inkscape.org/namespaces/inkscape"
   width="100%"
   height="100%"
   viewBox="0 0 35.0 26.0"
   id="svg2"
   version="1.1"
   inkscape:version="0.91 r13725"
   sodipodi:docname="autobahn_4x2_z16.svg">
  <metadata
     id="metadata9">
    <rdf:RDF>
      <cc:Work
         rdf:about="">
        <dc:format>image/svg+xml</dc:format>
        <dc:type
           rdf:resource="http://purl.org/dc/dcmitype/StillImage" />
        <dc:title></dc:title>
      </cc:Work>
    </rdf:RDF>
  </metadata>
  <defs
     id="defs7" />
  <sodipodi:namedview
     pagecolor="#ffffff"
     bordercolor="#666666"
     borderopacity="1"
     objecttolerance="10"
     gridtolerance="10"
     guidetolerance="10"
     inkscape:pageopacity="0"
     inkscape:pageshadow="2"
     inkscape:window-width="984"
     inkscape:window-height="668"
     id="namedview5"
     showgrid="false"
     inkscape:zoom="9.0769231"
     inkscape:cx="17.5"
     inkscape:cy="13"
     inkscape:window-x="300"
     inkscape:window-y="320"
     inkscape:window-maximized="0"
     inkscape:current-layer="svg2" />
  <path
     style="fill:#365eaf;fill-opacity:1;stroke:#0528a2;stroke-width:1;stroke-miterlimit:4;stroke-dasharray:none;stroke-opacity:1"
     d="m 17.500001,0.5000001 c -0.243727,0 -0.365236,0.00359 -0.365236,0.012739 L 1.049128,2.4361421 C 0.683536,2.5283701 0.5,2.6677866 0.5,2.8522431 c 0,6.7651712 0,13.5303429 0,20.2955139 0,0.184457 0.183536,0.323875 0.549128,0.4161 l 16.085637,1.923403 c 0,0.0092 0.121512,0.01274 0.365236,0.01274 0.243728,0 0.365234,-0.0036 0.365234,-0.01274 l 16.085637,-1.923403 c 0.365594,-0.09223 0.549129,-0.231644 0.549129,-0.4161 0,-6.765172 0,-13.5303425 0,-20.2955137 0,-0.1844565 -0.183535,-0.3238749 -0.549129,-0.416101 L 17.865235,0.5127393 c 0,-0.00924 -0.12151,-0.012739 -0.365234,-0.012739 z"
     id="path6"
     inkscape:connector-curvature="0"
     sodipodi:nodetypes="sccccccsccccccs" />
</svg>

<?xml version="1.0" encoding="UTF-8"?>
<svg xmlns="http://www.w3.org/2000/svg" xmlns:xlink="http://www.w3.org/1999/xlink" width="34pt" height="34pt" viewBox="0 0 34 34" version="1.1">
<g id="surface1">
<path style="fill-rule:nonzero;fill:rgb(21.176471%,36.862745%,68.627451%);fill-opacity:1;stroke-width:1;stroke-linecap:butt;stroke-linejoin:miter;stroke:rgb(1.960784%,15.686275%,63.529412%);stroke-opacity:1;stroke-miterlimit:4;" d="M 17.5 0.498851 C 17.25471 0.498851 17.134076 0.504825 17.134076 0.513787 L 1.049517 2.4375 C 0.683594 2.527114 0.498621 2.667509 0.498621 2.852711 C 0.498621 9.618566 0.498621 16.381434 0.498621 23.147289 C 0.498621 23.332491 0.683594 23.472886 1.049517 23.5625 L 17.134076 25.486213 C 17.134076 25.495175 17.25471 25.501149 17.5 25.501149 C 17.74529 25.501149 17.865924 25.495175 17.865924 25.486213 L 33.950483 23.5625 C 34.316406 23.472886 34.501379 23.332491 34.501379 23.147289 C 34.501379 16.381434 34.501379 9.618566 34.501379 2.852711 C 34.501379 2.667509 34.316406 2.527114 33.950483 2.4375 L 17.865924 0.513787 C 17.865924 0.504825 17.74529 0.498851 17.5 0.498851 Z M 17.5 0.498851 " transform="matrix(0.971429,0,0,1.307692,0,0)"/>
</g>
</svg>
